svg/N_Arrows/47.svg

<svg xmlns="http://www.w3.org/2000/svg" viewBox="0 0 744.09 1052.36" xmlns:xlink="http://www.w3.org/1999/xlink"><defs><path id="0" d="m321.43 270.93h68.57v74.28h-68.57z"/></defs><g transform="matrix(3.87783 0 0 4.0143-986.63-1752.62)" fill="none" stroke="#000"><path d="M372.67859 536.91577A24.732143 24.732143 0 1 1 323.2143 536.91577 24.732143 24.732143 0 1 1 372.67859 536.91577z" transform="matrix(.58963 0 0 .54992 131.63 253.8)" opacity=".97" stroke-width="4.698"/><g fill-rule="evenodd" stroke-width="1.701"><path d="m331.73 527.45v7.385h9.795v-7.385h5.877l-10.774-14.771-10.774 14.771h5.877z"/><path d="m342.04 570.6v-7.385h-9.795v7.385h-5.877l10.774 14.771 10.774-14.771h-5.877z"/><path d="m358.81 543.7h-7.385v9.795h7.385v5.877l14.771-10.774-14.771-10.774v5.877z"/><path d="m314.23 552.97h7.385v-9.795h-7.385v-5.877l-14.771 10.774 14.771 10.774v-5.877z"/></g></g><g font-family="Arial Black" font-size="56"><flowRoot transform="translate(146.33 148.85)"><flowRegion><use xlink:href="#0"/></flowRegion><flowPara>E</flowPara></flowRoot><flowRoot transform="translate(-25.04-16.44)"><flowRegion><use xlink:href="#0"/></flowRegion><flowPara>N</flowPara></flowRoot><flowRoot transform="translate(-19.746 328.99)"><flowRegion><use xlink:href="#0"/></flowRegion><flowPara>S</flowPara></flowRoot><flowRoot transform="translate(-208.06 147.98)"><flowRegion><use xlink:href="#0"/></flowRegion><flowPara>W</flowPara></flowRoot></g></svg>

<?xml version="1.0" encoding="UTF-8" standalone="no"?>
<!-- Created with Inkscape (http://www.inkscape.org/) -->
<svg
   xmlns:dc="http://purl.org/dc/elements/1.1/"
   xmlns:cc="http://web.resource.org/cc/"
   xmlns:rdf="http://www.w3.org/1999/02/22-rdf-syntax-ns#"
   xmlns:svg="http://www.w3.org/2000/svg"
   xmlns="http://www.w3.org/2000/svg"
   xmlns:sodipodi="http://sodipodi.sourceforge.net/DTD/sodipodi-0.dtd"
   xmlns:inkscape="http://www.inkscape.org/namespaces/inkscape"
   width="744.09448819"
   height="1052.3622047"
   id="svg2"
   sodipodi:version="0.32"
   inkscape:version="0.44.1"
   sodipodi:docbase="F:\Qgis N_arrows\TOT"
   sodipodi:docname="27T.svg">
  <defs
     id="defs4" />
  <sodipodi:namedview
     id="base"
     pagecolor="#ffffff"
     bordercolor="#666666"
     borderopacity="1.0"
     inkscape:pageopacity="0.0"
     inkscape:pageshadow="2"
     inkscape:zoom="0.35"
     inkscape:cx="375"
     inkscape:cy="561.74965"
     inkscape:document-units="px"
     inkscape:current-layer="layer1"
     showgrid="true"
     inkscape:window-width="1280"
     inkscape:window-height="744"
     inkscape:window-x="-4"
     inkscape:window-y="-4" />
  <metadata
     id="metadata7">
    <rdf:RDF>
      <cc:Work
         rdf:about="">
        <dc:format>image/svg+xml</dc:format>
        <dc:type
           rdf:resource="http://purl.org/dc/dcmitype/StillImage" />
      </cc:Work>
    </rdf:RDF>
  </metadata>
  <g
     inkscape:label="Livello 1"
     inkscape:groupmode="layer"
     id="layer1">
    <g
       id="g2837"
       inkscape:export-filename="F:\Qgis N_arrows\TOT\27T.png"
       inkscape:export-xdpi="300"
       inkscape:export-ydpi="300">
      <g
         transform="matrix(3.877834,0,0,4.014333,-986.6258,-1752.619)"
         id="g1888">
        <path
           sodipodi:type="arc"
           style="opacity:0.97000002;fill:none;fill-opacity:1;stroke:black;stroke-width:4.69799995;stroke-miterlimit:4;stroke-dasharray:none;stroke-opacity:1"
           id="path1872"
           sodipodi:cx="347.94644"
           sodipodi:cy="536.91577"
           sodipodi:rx="24.732143"
           sodipodi:ry="24.732143"
           d="M 372.67859 536.91577 A 24.732143 24.732143 0 1 1  323.2143,536.91577 A 24.732143 24.732143 0 1 1  372.67859 536.91577 z"
           transform="matrix(0.58963,0,0,0.549919,131.6257,253.798)" />
        <path
           style="fill:none;fill-rule:evenodd;stroke:black;stroke-width:1.70105219px;stroke-linecap:butt;stroke-linejoin:miter;stroke-opacity:1"
           d="M 331.72753,527.44773 L 331.72753,534.8331 L 341.5225,534.8331 L 341.5225,527.44773 L 347.39948,527.44773 L 336.625,512.67701 L 325.85053,527.44773 L 331.72753,527.44773 z "
           id="path1878" />
        <path
           style="fill:none;fill-rule:evenodd;stroke:black;stroke-width:1.70105219px;stroke-linecap:butt;stroke-linejoin:miter;stroke-opacity:1"
           d="M 342.04033,570.59808 L 342.04033,563.21271 L 332.24536,563.21271 L 332.24536,570.59808 L 326.36838,570.59808 L 337.14286,585.3688 L 347.91733,570.59808 L 342.04033,570.59808 z "
           id="path1882" />
        <path
           style="fill:none;fill-rule:evenodd;stroke:black;stroke-width:1.70105219px;stroke-linecap:butt;stroke-linejoin:miter;stroke-opacity:1"
           d="M 358.80732,543.69687 L 351.42195,543.69687 L 351.42195,553.49184 L 358.80732,553.49184 L 358.80732,559.36882 L 373.57804,548.59434 L 358.80732,537.81987 L 358.80732,543.69687 z "
           id="path1884" />
        <path
           style="fill:none;fill-rule:evenodd;stroke:black;stroke-width:1.70105219px;stroke-linecap:butt;stroke-linejoin:miter;stroke-opacity:1"
           d="M 314.22839,552.97394 L 321.61376,552.97394 L 321.61376,543.17897 L 314.22839,543.17897 L 314.22839,537.30199 L 299.45767,548.07647 L 314.22839,558.85094 L 314.22839,552.97394 z "
           id="path1886" />
      </g>
      <flowRoot
         inkscape:export-ydpi="300"
         inkscape:export-xdpi="300"
         inkscape:export-filename="F:\Qgis N_arrows\TOT\25T.png"
         transform="translate(146.3301,148.847)"
         style="font-size:56px;font-family:Arial Black"
         id="flowRoot2798"
         xml:space="preserve"><flowRegion
           id="flowRegion2800"><rect
             style="font-size:56px;font-family:Arial Black"
             y="270.93362"
             x="321.42856"
             height="74.285713"
             width="68.571426"
             id="rect2802" /></flowRegion><flowPara
           id="flowPara2804">E</flowPara></flowRoot>      <flowRoot
         inkscape:export-ydpi="300"
         inkscape:export-xdpi="300"
         inkscape:export-filename="F:\Qgis N_arrows\TOT\25T.png"
         transform="translate(-25.03919,-16.44011)"
         style="font-size:56px;font-family:Arial Black"
         id="flowRoot2790"
         xml:space="preserve"><flowRegion
           id="flowRegion2792"><rect
             style="font-size:56px;font-family:Arial Black"
             y="270.93362"
             x="321.42856"
             height="74.285713"
             width="68.571426"
             id="rect2794" /></flowRegion><flowPara
           id="flowPara2796">N</flowPara></flowRoot>      <flowRoot
         inkscape:export-ydpi="300"
         inkscape:export-xdpi="300"
         inkscape:export-filename="F:\Qgis N_arrows\TOT\25T.png"
         transform="translate(-19.74609,328.9903)"
         style="font-size:56px;font-family:Arial Black"
         id="flowRoot1980"
         xml:space="preserve"><flowRegion
           id="flowRegion1982"><rect
             style="font-size:56px;font-family:Arial Black"
             y="270.93362"
             x="321.42856"
             height="74.285713"
             width="68.571426"
             id="rect1984" /></flowRegion><flowPara
           id="flowPara1986">S</flowPara></flowRoot>      <flowRoot
         inkscape:export-ydpi="300"
         inkscape:export-xdpi="300"
         inkscape:export-filename="F:\Qgis N_arrows\TOT\25T.png"
         transform="translate(-208.0625,147.9759)"
         style="font-size:56px;font-family:Arial Black"
         id="flowRoot1988"
         xml:space="preserve"><flowRegion
           id="flowRegion1990"><rect
             style="font-size:56px;font-family:Arial Black"
             y="270.93362"
             x="321.42856"
             height="74.285713"
             width="68.571426"
             id="rect1992" /></flowRegion><flowPara
           id="flowPara1994">W</flowPara></flowRoot>    </g>
  </g>
</svg>
